X: 24444
T: Lucas For Ever
R: jig
M: 6/8
K: Aminor
F|:EDC GFE|ABc dB^G|A3 G3|CB,C DB,G,|
EDC GFE|ABc dB^G|ABc EA^G|1 A3 A2 F:|2 A3 Acd||
|:ecA ecA|def edc|dBG DGB|Bcd dcB|
c3 d3|edc dcB|cBA EA^G|1 A3 Acd:|2 A3 A2||

